src/img/decor/footer_box.svg

<svg width="1900" height="321" viewBox="0 0 1900 321" fill="none" xmlns="http://www.w3.org/2000/svg">
<g opacity="0.23">
<path d="M1899 98.5372V105.533H1807.45V105.198C1807.45 95.4582 1805.59 88.3911 1801.27 84.647C1796.91 80.2741 1789.88 76.9847 1780.34 75.0622C1768.11 72.3712 1748.9 71.0386 1722.76 70.8479H1722.76L1718.79 70.8479L1718.78 70.848C1692.82 71.0387 1673.98 72.5626 1661.93 75.4495L1661.93 75.4514L1661.92 75.4534C1652.94 77.7609 1646.3 81.0157 1642.11 85.403C1637.88 89.838 1636.24 95.3442 1637.13 101.902L1637.13 101.91C1637.63 105.411 1638.94 108.414 1641.07 110.798C1643.21 113.179 1646.13 114.886 1649.78 115.881C1657.03 117.993 1660.5 118.573 1668.28 119.72L1668.32 119.726L1668.36 119.728L1721.76 122.968L1721.78 122.97L1721.81 122.97C1742.04 123.16 1758.69 123.922 1772.1 124.873C1785.89 126.013 1799.31 127.725 1813.1 130.196C1826.89 132.669 1838.34 135.699 1847.12 139.836L1847.13 139.843L1847.15 139.849C1864.98 147.593 1881.25 160.41 1890.58 179.395L1890.59 179.41L1890.59 179.424C1895.99 189.53 1898.63 202.125 1898.63 217.068C1898.63 232.004 1895.99 245.398 1891.13 256.884C1884.02 272.872 1872.25 285.865 1855.37 295.675L1855.37 295.677C1828.93 311.162 1785.03 318.79 1723.34 318.981H1721.44C1658.59 318.981 1614.33 311.54 1588.83 296.63L1588.83 296.629C1571.96 286.822 1560.38 273.643 1553.27 257.264L1553.26 257.25L1553.26 257.237C1548.4 246.903 1545.77 235.042 1545.57 221.254V214.638H1637.12V215.545C1637.12 224.788 1639.03 231.42 1643.29 235.514C1647.63 239.68 1654.44 243.177 1663.66 245.109L1663.67 245.11C1675.89 247.61 1695.1 248.942 1721.25 248.942H1723.15C1748.33 248.942 1767.18 247.802 1779.41 245.107L1779.42 245.106C1788.87 242.991 1795.98 239.792 1800.62 235.425C1805.29 231.018 1807.38 225.478 1806.88 218.899L1806.88 218.897C1806.59 215.115 1805.44 211.959 1803.4 209.416C1801.37 206.878 1798.5 205.024 1794.86 203.739C1787.96 201.228 1783.89 200.452 1776.07 199.683L1776.05 199.681L1776.03 199.68L1721.68 196.631L1721.67 196.631L1721.66 196.63C1719.28 196.539 1716.94 196.45 1714.65 196.363C1697.83 195.725 1683.52 195.182 1671.7 194.346C1658.31 193.395 1644.52 191.684 1630.72 189.402C1616.94 186.932 1605.48 183.899 1596.51 179.759L1596.49 179.754C1578.69 171.83 1562.78 158.255 1553.24 140.183C1548.02 130.073 1545.39 117.664 1545.39 102.34C1545.39 87.0181 1548.02 73.8212 1553.07 62.5373L1553.07 62.5293L1553.08 62.5213C1559.98 46.3526 1571.75 33.5491 1588.63 23.7339L1588.64 23.7315C1614.33 8.6306 1658.4 1 1721.25 1H1723.15C1785.97 1 1830.06 8.8197 1855.76 23.7343L1855.77 23.7356C1872.45 33.3557 1884.22 46.3483 1891.32 62.5305L1891.33 62.5416C1896.19 73.2662 1898.81 85.3239 1899 98.5372Z" stroke="#AE9BA5" stroke-width="2"/>
<path d="M1280.56 239.178V240.178H1281.56H1497.18V310.787H1192.06V10.3398H1497.18V80.7596H1281.56H1280.56V81.7596V124.068V125.068H1281.56H1479.58V195.678H1281.56H1280.56V196.678V239.178Z" stroke="#AE9BA5" stroke-width="2"/>
<path d="M772.881 310.787L903.599 161.125L904.174 160.467L903.599 159.809L772.883 10.3398H890.272L962.133 92.329L962.885 93.1871L963.637 92.3289L1035.48 10.3398H1153.06L1022.35 159.809L1021.77 160.467L1022.35 161.125L1153.06 310.787H1035.48L963.637 228.609L962.885 227.748L962.132 228.609L890.271 310.787H772.881Z" stroke="#AE9BA5" stroke-width="2"/>
<path d="M673.405 161.987C673.405 144.146 671.537 130.139 667.536 120.433V120.252L667.466 120.075C661.506 104.982 651.12 93.3789 636.361 84.8906C621.743 76.3737 600.513 72.3683 572.615 72.3683C521.903 72.3683 489.928 88.2448 477.771 120.247C473.525 129.588 471.446 143.28 471.446 161.034C471.446 178.793 473.526 192.295 477.772 201.634C490.12 233.441 521.902 249.128 572.615 249.128C600.708 249.128 622.109 245.12 636.901 237.194C651.688 229.269 661.694 217.655 667.461 202.77C671.516 193.431 673.405 179.931 673.405 161.987ZM752.901 88.2224L752.905 88.2321C760.984 107.897 765.136 132.533 764.947 161.79C764.762 190.749 760.878 214.799 753.156 233.979H752.958L752.709 234.614C738.992 269.597 713.842 293.017 680.224 304.547L680.214 304.55C663.619 310.433 646.648 314.419 629.679 316.507L629.669 316.508C612.495 318.787 593.609 319.739 572.624 319.548L572.613 319.548L572.601 319.548C531.219 320.119 498.015 315.745 464.449 303.788C431.393 291.878 405.854 267.691 392.139 233.652L392.135 233.643C384.057 214.168 379.902 190.103 379.902 161.034C379.902 131.96 383.869 107.899 392.133 88.2397L392.137 88.2302L392.141 88.2206C405.856 53.6169 431.391 29.8095 464.451 17.8984C498.013 5.94331 531.214 1.75926 572.597 2.52016L572.615 2.52049L572.634 2.52016C614.207 1.75924 647.028 5.94356 680.209 17.898L680.213 17.8992C713.65 29.8099 739.184 53.8066 752.901 88.2224Z" stroke="#AE9BA5" stroke-width="2"/>
<path d="M89.3237 123.877V124.877H90.3237H217.381C230.278 124.877 241.482 116.568 241.482 103.104C241.482 89.6689 230.121 80.7589 217.381 80.7589H90.3237H89.3237V81.7589V123.877ZM227.606 239.987H228.606V239.778C240.917 239.336 252.086 230.763 252.086 217.832C252.086 210.696 249.368 205.075 244.895 201.253C240.442 197.447 234.325 195.486 227.606 195.486H90.5133H89.5133V196.486V238.987V239.987H90.5133H227.606ZM303.011 37.2888L303.019 37.2966C311.773 46.1075 318.118 55.8466 322.611 66.336V66.5198L322.686 66.7027C328.118 79.8969 329.79 92.6832 328.298 104.504L329.291 104.629L328.298 104.504C326.798 116.41 323.799 126.19 319.331 134.247C314.649 142.353 309.616 148.341 303.87 152.818L302.652 153.767L304.017 154.49C318.115 161.958 328.584 175.812 334.966 195.651L334.969 195.659L334.972 195.667C341.706 215.434 340.777 234.81 332.915 254.033C327.662 265.925 321.104 275.538 313.243 283.639C304.806 291.941 295.064 298.725 284.209 303.435C272.84 308.313 257.281 310.596 237.454 310.596H1V10.1484H227.229C246.651 10.1484 262.036 12.6163 273.426 17.1233C284.674 22.0314 294.595 28.6289 303.011 37.2888Z" stroke="#AE9BA5" stroke-width="2"/>
</g>
</svg>

<svg xmlns="http://www.w3.org/2000/svg" width="1900" height="321" fill="none">
  <g stroke="#AE9BA5" stroke-width="2" opacity=".23">
    <path d="M1899 98.537v6.996h-91.55v-.335c0-9.74-1.86-16.807-6.18-20.551-4.36-4.373-11.39-7.662-20.93-9.585-12.23-2.69-31.44-4.023-57.58-4.214h-3.98c-25.96.19-44.8 1.715-56.85 4.602v.001l-.01.002c-8.98 2.308-15.62 5.563-19.81 9.95-4.23 4.435-5.87 9.941-4.98 16.499v.008c.5 3.501 1.81 6.504 3.94 8.888 2.14 2.381 5.06 4.088 8.71 5.083 7.25 2.112 10.72 2.692 18.5 3.839l.04.006.04.002 53.4 3.24.02.002h.03c20.23.19 36.88.952 50.29 1.903 13.79 1.14 27.21 2.852 41 5.323 13.79 2.473 25.24 5.503 34.02 9.64l.01.007.02.006c17.83 7.744 34.1 20.561 43.43 39.546l.01.015v.014c5.4 10.106 8.04 22.701 8.04 37.644 0 14.936-2.64 28.33-7.5 39.816-7.11 15.988-18.88 28.981-35.76 38.791v.002c-26.44 15.485-70.34 23.113-132.03 23.304h-1.9c-62.85 0-107.11-7.441-132.61-22.351v-.001c-16.87-9.807-28.45-22.986-35.56-39.365l-.01-.014v-.013c-4.86-10.334-7.49-22.195-7.69-35.983v-6.616h91.55v.907c0 9.243 1.91 15.875 6.17 19.969 4.34 4.166 11.15 7.663 20.37 9.595l.01.001c12.22 2.5 31.43 3.832 57.58 3.832h1.9c25.18 0 44.03-1.14 56.26-3.835l.01-.001c9.45-2.115 16.56-5.314 21.2-9.681 4.67-4.407 6.76-9.947 6.26-16.526v-.002c-.29-3.782-1.44-6.938-3.48-9.481-2.03-2.538-4.9-4.392-8.54-5.677-6.9-2.511-10.97-3.287-18.79-4.056l-.02-.002-.02-.001-54.35-3.049h-.01l-.01-.001-7.01-.267c-16.82-.638-31.13-1.181-42.95-2.017-13.39-.951-27.18-2.662-40.98-4.944-13.78-2.47-25.24-5.503-34.21-9.643l-.02-.005c-17.8-7.924-33.71-21.499-43.25-39.571-5.22-10.11-7.85-22.519-7.85-37.843 0-15.322 2.63-28.519 7.68-39.803v-.008l.01-.008c6.9-16.168 18.67-28.972 35.55-38.787l.01-.003C1614.33 8.632 1658.4 1 1721.25 1h1.9c62.82 0 106.91 7.82 132.61 22.734l.01.002c16.68 9.62 28.45 22.612 35.55 38.794l.01.012c4.86 10.724 7.48 22.782 7.67 35.995ZM1280.56 239.178v1h216.62v70.609h-305.12V10.34h305.12v70.42h-216.62v44.308h199.02v70.61h-199.02v43.5ZM772.881 310.787l130.718-149.662.575-.658-.575-.658-130.716-149.47h117.389l71.861 81.99.752.858.752-.858 71.843-81.99h117.58l-130.71 149.47-.58.658.58.658 130.71 149.662h-117.58l-71.843-82.178-.752-.861-.753.861-71.861 82.178h-117.39ZM673.405 161.987c0-17.841-1.868-31.848-5.869-41.554v-.181l-.07-.177c-5.96-15.093-16.346-26.696-31.105-35.184-14.618-8.517-35.848-12.523-63.746-12.523-50.712 0-82.687 15.877-94.844 47.879-4.246 9.341-6.325 23.033-6.325 40.787 0 17.759 2.08 31.261 6.326 40.6 12.348 31.807 44.13 47.494 94.843 47.494 28.093 0 49.494-4.008 64.286-11.934 14.787-7.925 24.793-19.539 30.56-34.424 4.055-9.339 5.944-22.839 5.944-40.783Zm79.496-73.765.004.01c8.079 19.665 12.231 44.301 12.042 73.558-.185 28.959-4.069 53.009-11.791 72.189h-.198l-.249.635c-13.717 34.983-38.867 58.403-72.485 69.933l-.01.003c-16.595 5.883-33.566 9.869-50.535 11.957l-.01.001c-17.174 2.279-36.06 3.231-57.045 3.04h-.023c-41.382.571-74.586-3.803-108.152-15.76-33.056-11.91-58.595-36.097-72.31-70.136l-.004-.009c-8.078-19.475-12.233-43.54-12.233-72.609 0-29.074 3.967-53.135 12.231-72.794l.004-.01.004-.01c13.715-34.603 39.25-58.41 72.31-70.322C498.013 5.943 531.214 1.76 572.597 2.52h.037c41.573-.76 74.394 3.424 107.575 15.378l.004.001c33.437 11.91 58.971 35.908 72.688 70.323ZM89.324 123.877v1H217.38c12.897 0 24.101-8.309 24.101-21.773 0-13.435-11.361-22.345-24.101-22.345H89.324v43.118Zm138.282 116.11h1v-.209c12.311-.442 23.48-9.015 23.48-21.946 0-7.136-2.718-12.757-7.191-16.579-4.453-3.806-10.57-5.767-17.289-5.767H89.513v44.501h138.093Zm75.405-202.698.008.008c8.754 8.81 15.099 18.55 19.592 29.039v.184l.075.183c5.432 13.194 7.104 25.98 5.612 37.801l.993.125-.993-.125c-1.5 11.906-4.499 21.686-8.967 29.743-4.682 8.106-9.715 14.094-15.461 18.571l-1.218.949 1.365.723c14.098 7.468 24.567 21.322 30.949 41.161l.003.008.003.008c6.734 19.767 5.805 39.143-2.057 58.366-5.253 11.892-11.811 21.505-19.672 29.606-8.437 8.302-18.179 15.086-29.034 19.796-11.369 4.878-26.928 7.161-46.755 7.161H1V10.148h226.229c19.422 0 34.807 2.468 46.197 6.975 11.248 4.908 21.169 11.506 29.585 20.166Z"/>
  </g>
</svg>
